icons-dark/actions/24/im-gadugadu.svg

<?xml version="1.0" encoding="UTF-8" standalone="no"?>
<!-- Created with Inkscape (http://www.inkscape.org/) -->

<svg
   xmlns:dc="http://purl.org/dc/elements/1.1/"
   xmlns:cc="http://creativecommons.org/ns#"
   xmlns:rdf="http://www.w3.org/1999/02/22-rdf-syntax-ns#"
   xmlns:svg="http://www.w3.org/2000/svg"
   xmlns="http://www.w3.org/2000/svg"
   xmlns:sodipodi="http://sodipodi.sourceforge.net/DTD/sodipodi-0.dtd"
   xmlns:inkscape="http://www.inkscape.org/namespaces/inkscape"
   width="24"
   height="24"
   id="svg3869"
   version="1.1"
   inkscape:version="0.91 r13725"
   sodipodi:docname="im-gadugadu.svg">
  <defs
     id="defs3871">
    <inkscape:perspective
       sodipodi:type="inkscape:persp3d"
       inkscape:vp_x="0 : 12 : 1"
       inkscape:vp_y="0 : 1000 : 0"
       inkscape:vp_z="24 : 12 : 1"
       inkscape:persp3d-origin="12 : 8 : 1"
       id="perspective4146" />
    <inkscape:perspective
       sodipodi:type="inkscape:persp3d"
       inkscape:vp_x="0 : 12 : 1"
       inkscape:vp_y="0 : 1000 : 0"
       inkscape:vp_z="24 : 12 : 1"
       inkscape:persp3d-origin="12 : 8 : 1"
       id="perspective4090" />
  </defs>
  <sodipodi:namedview
     id="base"
     pagecolor="#ffffff"
     bordercolor="#666666"
     borderopacity="1.0"
     inkscape:pageopacity="0.0"
     inkscape:pageshadow="2"
     inkscape:zoom="22.627416"
     inkscape:cx="5.4926209"
     inkscape:cy="12.032563"
     inkscape:document-units="px"
     inkscape:current-layer="layer1"
     showgrid="true"
     fit-margin-top="0"
     fit-margin-left="0"
     fit-margin-right="0"
     fit-margin-bottom="0"
     inkscape:window-width="1366"
     inkscape:window-height="709"
     inkscape:window-x="-4"
     inkscape:window-y="0"
     inkscape:window-maximized="1"
     inkscape:showpageshadow="false"
     inkscape:object-nodes="true"
     inkscape:snap-bbox="true">
    <inkscape:grid
       type="xygrid"
       id="grid4132" />
    <sodipodi:guide
       position="4,18"
       orientation="18,0"
       id="guide4138" />
    <sodipodi:guide
       position="5,3"
       orientation="0,18"
       id="guide4140" />
    <sodipodi:guide
       position="20,2.0000174"
       orientation="-18,0"
       id="guide4142" />
    <sodipodi:guide
       position="2,21"
       orientation="0,-18"
       id="guide4144" />
    <sodipodi:guide
       position="3,19.000017"
       orientation="16,0"
       id="guide4146" />
    <sodipodi:guide
       position="2,4"
       orientation="0,16"
       id="guide4148" />
    <sodipodi:guide
       position="21,20"
       orientation="-16,0"
       id="guide4150" />
    <sodipodi:guide
       position="2,20"
       orientation="0,-16"
       id="guide4152" />
  </sodipodi:namedview>
  <metadata
     id="metadata3874">
    <rdf:RDF>
      <cc:Work
         rdf:about="">
        <dc:format>image/svg+xml</dc:format>
        <dc:type
           rdf:resource="http://purl.org/dc/dcmitype/StillImage" />
        <dc:title></dc:title>
      </cc:Work>
    </rdf:RDF>
  </metadata>
  <g
     inkscape:label="Capa 1"
     inkscape:groupmode="layer"
     id="layer1"
     transform="translate(-326,-532.3622)">
    <g
       transform="translate(327,-497)"
       id="layer1-4"
       inkscape:label="Capa 1">
      <path
         id="rect4108"
         transform="translate(0,1030.3622)"
         d="m 10,3 0,2.0898438 C 9.0867569,5.2421264 8.2459631,5.5958569 7.5234375,6.109375 L 6.0507812,4.6367188 4.6367188,6.0507812 6.109375,7.5234375 C 5.5958569,8.2459631 5.2421264,9.0867569 5.0898438,10 L 3,10 l 0,2 2.0898438,0 c 0.1522826,0.913243 0.5060131,1.754037 1.0195312,2.476562 l -1.4726562,1.472657 1.4140624,1.414062 1.4726563,-1.472656 C 8.2459631,16.404143 9.0867569,16.757874 10,16.910156 L 10,19 l 2,0 0,-2.089844 c 0.913243,-0.152282 1.754037,-0.506013 2.476562,-1.019531 l 1.472657,1.472656 1.414062,-1.414062 -1.472656,-1.472657 C 16.404143,13.754037 16.757874,12.913243 16.910156,12 L 19,12 19,10 16.910156,10 C 16.757874,9.0867569 16.404143,8.2459631 15.890625,7.5234375 L 17.363281,6.0507812 15.949219,4.6367188 14.476562,6.109375 C 13.754037,5.5958569 12.913243,5.2421264 12,5.0898438 L 12,3 10,3 Z m 1,3 c 1.363958,0 2.593808,0.5442179 3.494141,1.4238281 l 0.08203,0.082031 C 15.455782,8.406192 16,9.6360421 16,11 c 0,1.363958 -0.544218,2.593808 -1.423828,3.494141 l -0.08203,0.08203 C 13.593808,15.455782 12.363958,16 11,16 9.6360421,16 8.406192,15.455782 7.5058594,14.576172 l -0.082031,-0.08203 C 6.5442179,13.593808 6,12.363958 6,11 6,9.6360421 6.5442179,8.406192 7.4238281,7.5058594 l 0.082031,-0.082031 C 8.406192,6.5442179 9.6360421,6 11,6 Z M 9,9 c -0.554,0 -1,0.446 -1,1 0,0.554 0.446,1 1,1 0.554,0 1,-0.446 1,-1 C 10,9.446 9.554,9 9,9 Z m 4,0 c -0.554,0 -1,0.446 -1,1 0,0.554 0.446,1 1,1 0.554,0 1,-0.446 1,-1 C 14,9.446 13.554,9 13,9 Z M 8.0917969,11.726562 7.125,11.96875 A 4,4 0 0 0 11,15 4,4 0 0 0 14.876953,11.96875 L 13.90625,11.726562 A 3,3 0 0 1 11,14 3,3 0 0 1 8.0917969,11.726562 Z"
         style="opacity:1;fill:#f2f2f2;fill-opacity:1;stroke:none"
         inkscape:connector-curvature="0" />
    </g>
  </g>
</svg>

<svg xmlns="http://www.w3.org/2000/svg" viewBox="0 0 24 24">
  <defs id="defs3051">
    <style type="text/css" id="current-color-scheme">
      .ColorScheme-Text {
        color:#f2f2f2
      }
      </style>
  </defs>
  <a transform="translate(1,1)">
 <path 
     style="fill:currentColor;fill-opacity:1;stroke:none" 
     d="M 10 3 L 10 5.0898438 C 9.0867569 5.2421264 8.2459631 5.5958569 7.5234375 6.109375 L 6.0507812 4.6367188 L 4.6367188 6.0507812 L 6.109375 7.5234375 C 5.5958569 8.2459631 5.2421264 9.0867569 5.0898438 10 L 3 10 L 3 12 L 5.0898438 12 C 5.2421264 12.913243 5.5958569 13.754038 6.109375 14.476562 L 4.6367188 15.949219 L 6.0507812 17.363281 L 7.5234375 15.890625 C 8.2459631 16.404143 9.0867569 16.757874 10 16.910156 L 10 19 L 12 19 L 12 16.910156 C 12.913243 16.757874 13.754038 16.404143 14.476562 15.890625 L 15.949219 17.363281 L 17.363281 15.949219 L 15.890625 14.476562 C 16.404143 13.754038 16.757874 12.913243 16.910156 12 L 19 12 L 19 10 L 16.910156 10 C 16.757874 9.0867569 16.404143 8.2459631 15.890625 7.5234375 L 17.363281 6.0507812 L 15.949219 4.6367188 L 14.476562 6.109375 C 13.754038 5.5958569 12.913243 5.2421264 12 5.0898438 L 12 3 L 10 3 z M 11 6 C 12.363958 6 13.593808 6.5442179 14.494141 7.4238281 L 14.576172 7.5058594 C 15.455782 8.406192 16 9.6360421 16 11 C 16 12.363958 15.455782 13.593808 14.576172 14.494141 L 14.494141 14.576172 C 13.593808 15.455782 12.363958 16 11 16 C 9.6360421 16 8.406192 15.455782 7.5058594 14.576172 L 7.4238281 14.494141 C 6.5442179 13.593808 6 12.363958 6 11 C 6 9.6360421 6.5442179 8.406192 7.4238281 7.5058594 L 7.5058594 7.4238281 C 8.406192 6.5442179 9.6360421 6 11 6 z M 9 9 C 8.446 9 8 9.446 8 10 C 8 10.554 8.446 11 9 11 C 9.554 11 10 10.554 10 10 C 10 9.446 9.554 9 9 9 z M 13 9 C 12.446 9 12 9.446 12 10 C 12 10.554 12.446 11 13 11 C 13.554 11 14 10.554 14 10 C 14 9.446 13.554 9 13 9 z M 8.0917969 11.726562 L 7.125 11.96875 A 4 4 0 0 0 11 15 A 4 4 0 0 0 14.876953 11.96875 L 13.90625 11.726562 A 3 3 0 0 1 11 14 A 3 3 0 0 1 8.0917969 11.726562 z "
     class="ColorScheme-Text"
     />
 </a>
</svg>
